X: 9
T:The Archers
M:6/8
L:1/8
R:Jig
N:http://www.lesession.co.uk
Z:Steve Mansfield 1998-2001
K:G
B2 c | d2 B g2 e | d2 B G3 | d2 B g2 f | e3 d3 |
d2 B g2 e | d2 B G3 | A2 d ^cde | d3 d3 ::
e2 f gfe | c2 d edc | B2 c dcB | A3 A3 |
d2 B g2 e | d2 B G3 | d2 g fga | g3 g3 :|

